packages/icons/svg/Fill/minus-circle.svg

<svg fill="none" height="24" viewBox="0 0 24 24" width="24" xmlns="http://www.w3.org/2000/svg"><path clip-rule="evenodd" d="m15 13h-5.99997c-.55 0-1-.45-1-1s.45-1 1-1h5.99997c.55 0 1 .45 1 1s-.45 1-1 1zm-3-11c-5.51397 0-9.99997 4.486-9.99997 10s4.486 10 9.99997 10c5.514 0 10-4.486 10-10s-4.486-10-10-10z" fill="#6b7280" fill-rule="evenodd"/></svg>

<svg width="24" height="24" viewBox="0 0 24 24" fill="none" xmlns="http://www.w3.org/2000/svg">
<g id="Icon/Fill/minus-circle">
<path id="Mask" fill-rule="evenodd" clip-rule="evenodd" d="M15 13H9C8.45 13 8 12.55 8 12C8 11.45 8.45 11 9 11H15C15.55 11 16 11.45 16 12C16 12.55 15.55 13 15 13ZM12 2C6.486 2 2 6.486 2 12C2 17.514 6.486 22 12 22C17.514 22 22 17.514 22 12C22 6.486 17.514 2 12 2Z" fill="#000000"/>
</g>
</svg>
